svgs/light/abacus.svg

<svg xmlns="http://www.w3.org/2000/svg" viewBox="0 0 576 512"><!-- Font Awesome Pro 6.0.0-alpha2 by @fontawesome - https://fontawesome.com License - https://fontawesome.com/license (Commercial License) --><path d="M512 32H64C28.654 32 0 60.652 0 96V416C0 451.346 28.654 480 64 480H512C547.348 480 576 451.346 576 416V96C576 60.652 547.348 32 512 32ZM512 64C529.645 64 544 78.355 544 96V192H448V160H464C472.844 160 480 152.844 480 144S472.844 128 464 128H448V64H512ZM416 64V128H400C391.156 128 384 135.156 384 144S391.156 160 400 160H416V192H288V160H304C312.844 160 320 152.844 320 144S312.844 128 304 128H288V64H416ZM256 64V128H240C231.156 128 224 135.156 224 144S231.156 160 240 160H256V192H160V160H176C184.844 160 192 152.844 192 144S184.844 128 176 128H160V64H256ZM32 96C32 78.355 46.355 64 64 64H128V128H112C103.156 128 96 135.156 96 144S103.156 160 112 160H128V192H32V96ZM64 448C46.355 448 32 433.645 32 416V224H128V288H112C103.156 288 96 295.156 96 304S103.156 320 112 320H128V352H112C103.156 352 96 359.156 96 368S103.156 384 112 384H128V448H64ZM160 448V384H176C184.844 384 192 376.844 192 368S184.844 352 176 352H160V320H176C184.844 320 192 312.844 192 304S184.844 288 176 288H160V224H256V288H240C231.156 288 224 295.156 224 304S231.156 320 240 320H256V352H240C231.156 352 224 359.156 224 368S231.156 384 240 384H256V448H160ZM288 448V384H304C312.844 384 320 376.844 320 368S312.844 352 304 352H288V320H304C312.844 320 320 312.844 320 304S312.844 288 304 288H288V224H416V352H400C391.156 352 384 359.156 384 368S391.156 384 400 384H416V448H288ZM544 416C544 433.645 529.645 448 512 448H448V384H464C472.844 384 480 376.844 480 368S472.844 352 464 352H448V224H544V416Z"/></svg>

<svg xmlns="http://www.w3.org/2000/svg" viewBox="0 0 576 512"><!--! Font Awesome Pro 6.3.0 by @fontawesome - https://fontawesome.com License - https://fontawesome.com/license (Commercial License) Copyright 2023 Fonticons, Inc. --><path d="M512 32H64c-35.35 0-64 28.65-64 64v320c0 35.35 28.65 64 64 64h448c35.35 0 64-28.65 64-64v-320C576 60.65 547.3 32 512 32zM512 64c17.64 0 32 14.36 32 32v96h-96l0-31.1L464 160C472.8 160 480 152.8 480 144s-7.156-15.1-16-15.1L448 128V64H512zM416 64v64l-16 .0002c-8.844 0-16 7.156-16 15.1S391.2 160 400 160l15.1 .0004L416 192h-128l0-31.1L304 160C312.8 160 320 152.8 320 144s-7.156-15.1-16-15.1L288 128V64H416zM256 64v64L240 128C231.2 128 224 135.2 224 144S231.2 160 240 160l15.1 .0004L256 192H160l0-31.1L176 160C184.8 160 192 152.8 192 144S184.8 128 176 128L160 128V64H256zM32 96c0-17.64 14.36-32 32-32h64v64L112 128C103.2 128 96 135.2 96 144S103.2 160 112 160l15.1 .0004L128 192H32V96zM64 448c-17.64 0-32-14.36-32-32V224h96v64L112 288C103.2 288 96 295.2 96 304S103.2 320 112 320l15.1 .0004v32L112 352C103.2 352 96 359.2 96 368s7.156 16 16 16L128 384v64H64zM160 448v-64l16 .0002c8.844 0 16-7.156 16-16S184.8 352 176 352l-15.1 .0004v-32L176 320C184.8 320 192 312.8 192 304S184.8 288 176 288L160 288V224h96v64L240 288C231.2 288 224 295.2 224 304S231.2 320 240 320l15.1 .0004v32L240 352C231.2 352 224 359.2 224 368s7.156 16 16 16L256 384v64H160zM288 448v-64l16 .0002c8.844 0 16-7.156 16-16S312.8 352 304 352l-15.1 .0004v-32L304 320c8.844 0 16-7.156 16-16s-7.156-15.1-16-15.1L288 288V224h128l0 128L400 352c-8.844 0-16 7.156-16 16s7.156 16 16 16L416 384v64H288zM544 416c0 17.64-14.36 32-32 32h-64v-64l16 .0002c8.844 0 16-7.156 16-16S472.8 352 464 352l-15.1 .0004L448 224h96V416z"/></svg>
